X: 29832
T: O'Connor's Favourite
R: hornpipe
M: 4/4
K: Dmajor
(3ABc|:d>AF>A d>fa>f|g>fe>c d2A2|B>dA>d G>dF>d|F>EE>D E2 (3ABc|
d>AF>A d>fa>f|g>fe>c d>cB>A|B>cd>B A>GF>E|1 D2 (3DDD D2 (3ABc:|2 D2 (3DDD D2 F>G||
A>Fd>e f>eA>F|G>AB>G E2f2|g>fe>d c>de>f|e>dc>B A2 (3ABc|
d2 A>d f2 d>f|a2 f>d A>d f2|g>fe>d c>AB>c|1 d2 (3ddd d2 F>G:|2 d2 (3ddd d2||

